public/favicon.svg

<svg version="1.2" xmlns="http://www.w3.org/2000/svg" viewBox="0 0 1024 1024" width="32" height="32"><defs><image  width="1024" height="1024" id="img1" href="data:image/png;base64,iVBORw0KGgoAAAANSUhEUgAABAAAAAQAAQMAAABF07nAAAAAAXNSR0IB2cksfwAAAANQTFRF/08AbgNa/QAAAhlJREFUeJztziEBAAAAAiD9f9oZFlhAc1YBAQEBAQEBAQEBAQEBAQEBAQEBAQEBAQEBAQEBAQEBAQEBAQEBAQEBAQEBAQEBAQEBAQEBAQEBAQEBAQEBAQEBAQEBAQEBAQEBAQEBAQEBAQEBAQEBAQEBAQEBAQEBAQEBAQEBAQEBAQEBAQEBAQEBAQEBAQEBAQEBAQEBAQEBAQEBAQEBAQEBAQEBAQEBAQEBAQEBAQEBAQEBAQEBAQEBAQEBAQEBAQEBAQEBAQEBAQEBAQEBAQEBAQEBAQEBAQEBAQEBAQEBAQEBAQEBAQEBAQEBAQEBAQEBAQEBAQEBAQEBAQEBAQEBAQEBAQEBAQEBAQEBAQEBAQEBAQEBAQEBAQEBAQEBAQEBAQEBAQEBAQEBAQEBAQEBAQEBAQEBAQEBAQEBAQEBAQEBAQEBAQEBAQEBAQEBAQEBAQEBAQEBAQEBAQEBAQEBAQEBAQEBAQEBAQEBAQEBAQEBAQEBAQEBAQEBAQEBAQEBAQEBAQEBAQEBAQEBAQEBAQEBAQEBAQEBAQEBAQEBAQEBAQEBAQEBAQEBAQEBAQEBAQEBAQEBAQEBAQEBAQEBAQEBAQEBAQEBAQEBAQEBAQEBAQEBAQEBAQEBAQEBAQEBAQEBAQEBAQEBAQEBAQEBAQEBAQEBAQEBAQEBAQEBAQEBAQEBAQEBAQEBAQEBAQEBAQEBAQGBd2BCpQQBRXQPrAAAAABJRU5ErkJggg=="/></defs><style>.a{fill:#fff}</style><use  href="#img1" x="0" y="0"/><path class="a" d="m430.9 767h-353.2v-509.3h353.5v98.5h-233v105.3h214.4v96.4h-214.4v110.6h232.7zm191.3 0h-120.5v-509.2h120.5v199.8h203.4v-199.8h120.5v509.2h-120.5v-210.9h-203.4z"/></svg>

<svg xmlns="http://www.w3.org/2000/svg" width="32" height="32" viewBox="0 0 1024 1024"><path fill="#ff4f00" d="M0 0h1024v1024H0z"/><path fill="#fff" d="M430.9 767H77.7V257.7h353.5v98.5h-233v105.3h214.4v96.4H198.2v110.6h232.7zm191.3 0H501.7V257.8h120.5v199.8h203.4V257.8h120.5V767H825.6V556.1H622.2z"/></svg>
